file/conrad-hotels.svg

<svg clip-rule="evenodd" fill-rule="evenodd" stroke-linejoin="round" stroke-miterlimit="1.41421" viewBox="0 0 560 400" xmlns="http://www.w3.org/2000/svg"><path d="m362.1 83.3-2.3 3.1-2.4-3.1h-.8v6.3h.9v-4.8l.1.1 2 2.7h.4l2-2.7.1-.2v5h.9v-6.3m-12 .7h1.7v5.5h.9v-5.5h1.8v-.8h-4.4zm-41.7 15.6.3.2-.4.2h-2.2c-1.3 0-1.8-.1-2.4-.4-.9-.5-1.8-1.6-3-3.3-.9-1.2-1.9-2.8-2.2-3.1l-.4-.2h-1.9l-.2.2v.3c0 2.1 0 3.9.1 4.8l.9 1.2 1.1.1.2.2-.4.2h-3.3-2.7l-.5-.2.4-.2.8-.1.7-1.2c.1-.9.1-2.7.1-4.7v-4-4.7l-1-1.3-.9-.1-.3-.2.5-.2h6.2c1.4 0 2.9.1 4.1.9.6.4 1.5 1.6 1.5 3.1 0 1.6-.7 3.1-3 5 2 2.5 3.6 4.5 4.8 5.9 1.3 1.3 2.2 1.4 2.5 1.5zm-9-7.9c.7-.5 1.3-1.6 1.3-3.4 0-3.2-2.1-4.1-3.4-4.1l-1.2.1-.2.3v6.8l.2.4 1.7.2zm34.4 8c1 .4 1.9.6 3.3.6 1.2 0 2.4-.2 3.6-.9 1.6-1.1 2.1-2.6 2.1-3.9 0-2.1-.9-3.7-3.7-5.7l-.6-.5c-1.8-1.4-2.4-2.2-2.4-3.2 0-1.3 1-2.3 2.7-2.3 1.5 0 2.1.7 2.4 1.1l.6 1.5.2.4.2-.7c0-1.7.1-2.4.1-2.7l-.3-.3c-.6-.1-1.6-.4-3-.4-3.1 0-5.2 1.8-5.2 4.2 0 1.8.8 3.4 3.3 5.3l1.1.8c1.8 1.4 2.2 2.5 2.2 3.5 0 1.2-1 2.5-3 2.5-1.4 0-2.7-.6-3.2-2.3l-.2-1.2-.2-.3-.3.6c0 .3-.1 1.7-.1 2.9zm-16.6-6.2c0 2.1 0 3.8-.1 4.7l-.7 1.2-.8.1-.4.2.4.2h6.3l.4-.2-.3-.2-1.2-.1-.9-1.2c-.1-.9-.1-2.7-.1-4.8v-9.1h2.9c1.9.1 2.6.7 2.6 1.2v.4l.3.4.2-.4.1-2.6-.2-.5-.6.1-1.5.1h-8.9l-2.3-.1-.9-.3-.3.4-.5 2.6.2.3.2-.3.4-.8c.4-.5.9-.6 2.2-.7h3.3v9.4zm-42-10.7c5.6 0 9 3.3 9 8.3 0 5.1-3.6 9.2-9.2 9.2-6.4 0-9-4.8-9-8.8 0-3.7 2.5-8.7 9.2-8.7m.8 16.4c1.6 0 5.2-.8 5.2-7.2 0-5-2.9-8.1-6.6-8.1-2.5 0-5.5 1.4-5.5 7 0 4.6 2.6 8.3 6.9 8.3m-26.7.5c.9.4 2 .6 3.2.6s2.5-.2 3.6-.9c1.6-1.1 2-2.6 2-3.9 0-2.1-.9-3.7-3.6-5.7l-.6-.5c-1.8-1.4-2.4-2.2-2.4-3.2 0-1.3 1-2.3 2.7-2.3 1.5 0 2.1.7 2.4 1.1l.6 1.5.2.4.3-.7v-2.7l-.3-.3c-.6-.1-1.5-.4-2.9-.4-3.1 0-5.2 1.8-5.2 4.2 0 1.8.8 3.4 3.3 5.3l1 .8c1.9 1.4 2.2 2.5 2.2 3.5 0 1.2-1 2.5-3 2.5-1.4 0-2.8-.6-3.2-2.3l-.2-1.2-.2-.3-.3.6c0 .3-.1 1.7-.1 2.9zm-17.8-6.2c0 2.1 0 3.8-.1 4.7l-.7 1.2-.8.1-.3.2.4.2h5.1c1 0 2.2.1 3.9.1l1.2-.6.3-2.5-.2-.4-.2.4-1 1.7-2.1.3c-2.2 0-2.6-.3-2.6-1.9v-5.2l.1-.3 3.3.1 1.2.8v.8l.2.2.2-.5.1-1.5.2-1.6-.2-.2-.3.3-1.1.4h-3.6l-.1-.2v-5.7l.1-.2 3.2.1c1.1.1 1.3.4 1.5.8l.1.8.2.4.2-.3.2-1.5.2-1.4-.2-.2-.4.1-.9.1h-5.5-1.5-1.8l-.5.2.4.2.9.1 1 1.3v8.6zm-6.7 6.1.3.2-.4.2h-2.1c-1.3 0-1.8-.1-2.4-.4-.9-.5-1.7-1.6-3-3.3-.9-1.2-1.9-2.8-2.2-3.1l-.4-.2h-1.9l-.1.2v.3c0 2.1 0 3.9.1 4.8l.9 1.2 1.1.1.3.2-.4.2h-3.3-2.7l-.5-.2.4-.2.8-.1.6-1.2c.1-.9.1-2.7.1-4.7v-4-4.7l-1-1.3-.9-.1-.4-.2.5-.2h6.3c1.4 0 2.9.1 4.1.9.6.4 1.5 1.6 1.5 3.1 0 1.6-.7 3.1-2.9 5 2 2.5 3.5 4.5 4.8 5.9 1.3 1.3 2.2 1.4 2.5 1.5zm-9-7.9c.7-.5 1.3-1.6 1.3-3.4 0-3.2-2.1-4.1-3.4-4.1l-1.2.1-.2.3v6.8l.2.4 1.7.2zm-24.7 7.9.3.2-.7.2h-1.6c-2.6 0-3.4-.2-5.3-1.7-.7.7-2.2 2.1-5.3 2.1-4.8 0-6.2-3-6.2-5 0-2.6 2.3-4.6 3.7-5.3-1-1.3-1.1-2.2-1.2-3.2 0-1.8 1.6-4.1 5.4-4.1 1.1 0 2.1.2 2.8.5l.4.6-.3 2.9-.3.4-.2-.4-.6-1.9c-.4-.5-1.2-1-2.5-1-1 0-2.4.6-2.4 2.6 0 2.1 1.9 3.9 3.7 5.9l3.9 3.7c.4-.6 1.1-2.1 1.1-3.5l-.4-1-1.1-.4-.3-.1.4-.2c.5 0 1.4 0 2.7.2l.8.4c0 1.7-.9 3.8-2.2 5.3 1.5 1.2 2.5 1.8 3.1 2.2zm-11.8-.7c1.7 0 3.2-.9 3.7-1.3-1.3-1.1-3.5-3.2-4.1-3.8l-2.4-2.8c-.7.6-1.5 1.6-1.5 3.4.1 2.7 2 4.5 4.3 4.5m-35.3.8c1 .4 2 .6 3.2.6s2.4-.2 3.6-.9c1.6-1.1 2.1-2.6 2.1-3.9 0-2.1-1-3.7-3.7-5.7l-.6-.5c-1.9-1.4-2.4-2.2-2.4-3.2 0-1.3 1-2.3 2.7-2.3 1.5 0 2.1.7 2.4 1.1l.6 1.5.2.4.2-.7c0-1.7.1-2.4.1-2.7l-.3-.3c-.6-.1-1.5-.4-2.9-.4-3.1 0-5.2 1.8-5.2 4.2 0 1.8.8 3.4 3.3 5.3l1 .8c1.9 1.4 2.2 2.5 2.2 3.5 0 1.2-1 2.5-3 2.5-1.4 0-2.7-.6-3.2-2.3l-.2-1.2-.2-.3-.3.6c0 .3-.1 1.7-.1 2.9zm-14.4-10.1c0-3.4 0-4 .1-4.7l.8-1.3.9-.1.4-.2-.5-.2h-3.1-3l-.5.2.4.2.7.1 1 1.3c.1.7.1 1.3.1 4.7v4c0 2.1 0 3.8-.2 4.7l-.6 1.2-.8.1-.4.2.4.2h5.5c1 0 2.1.1 3.8.1 1.1 0 1.2-.1 1.4-.6l.3-2.6-.2-.4-.2.3-.6 1.4c-.6.6-1.4.6-2.6.6-1.7 0-2.3-.1-2.7-.5-.5-.4-.5-2-.5-4.8v-3.9zm-21.9 3.9c0 2.1 0 3.8-.1 4.7l-.7 1.2-.8.1-.4.2.5.2h5.2c.9 0 2.2.1 3.8.1l1.2-.6.3-2.5-.2-.4-.2.3-1 1.7-2.1.3c-2.3 0-2.7-.3-2.7-1.9v-5.2l.2-.3 3.1.1 1.3.8.1.8.2.2.2-.5.1-1.5.2-1.6-.1-.2-.3.3-1.1.4h-3.6l-.2-.2v-5.7l.2-.2 3.1.1c1.1.1 1.4.4 1.5.8l.1.8.2.4.2-.3.1-1.5.2-1.4-.1-.1-.3.1-.9.1h-5.6-1.4-1.8l-.5.2.4.2.9.1 1 1.3v8.6zm-17.8 0c0 2.1 0 3.8-.1 4.7l-.6 1.2-.8.1-.4.2.5.2h6.3l.4-.2-.3-.2-1.2-.1-.8-1.2c-.1-.9-.1-2.7-.1-4.8v-9.1h2.8c2 .1 2.6.7 2.6 1.2v.3l.2.4.2-.4v-2.6-.3l-.6.1-1.5.1h-8.9l-2.2-.1-1-.3-.3.5-.4 2.6.2.3.2-.2.4-.8c.4-.5.9-.6 2.1-.7h3.3zm-19.9-10.7c5.6 0 9.1 3.3 9.1 8.3 0 5.1-3.6 9.2-9.3 9.2-6.4 0-9-4.8-9-8.8 0-3.7 2.5-8.7 9.2-8.7m.7 16.4c1.6 0 5.2-.8 5.2-7.2 0-5-2.9-8.1-6.6-8.1-2.6 0-5.5 1.4-5.5 7 0 4.6 2.6 8.3 6.9 8.3m-29.6-9-.2-.2v-.5-4.7l.8-1.3.7-.1.4-.2-.4-.2h-2.9-3.2l-.4.2.4.2.9.1 1 1.3v8.7c0 2.1 0 3.8-.1 4.7l-.6 1.2-.8.1-.4.2.4.2h6.3l.5-.2-.4-.1-1.2-.1-.8-1.2c-.1-.9-.1-2.7-.1-4.8v-2l.2-.1h8.5l.1.1v2c0 2.1 0 3.8-.1 4.7l-.6 1.2-.8.1-.4.2.5.2h6.3l.5-.2-.4-.2-1.1-.1-.9-1.2c-.1-.9-.1-2.7-.1-4.8v-4-4.7l.8-1.3.7-.1.4-.2-.4-.2h-2.9-3.2l-.5.2.4.2.9.1 1 1.3c.1.7.1 1.3.1 4.7v.5l-.1.2h-8.8zm348.1-62.4c0 16.3-12.4 25.3-32.3 25.3h-16.4c3.4-1.1 4.6-2.4 4.6-7.3v-35.8c0-4.9-.2-6-4.6-7.6h19.2c16.6.1 29.5 8.3 29.5 25.4m-28.9 19.5c11.6 0 19.8-7.3 19.8-19.2 0-12.2-7.7-20.6-20.5-20.6h-7.3v34.9c0 3.6 1.1 4.9 4.2 4.9zm-111.8-32.4c0-9.9-9.3-12.4-16.1-12.4h-18.1c4.5 1.3 3.8 7.3 3.8 10.8v29.1c0 3.4.4 9.4-4.6 10.8h16.7c-4.8-1.4-4.8-7.2-4.8-10.8v-34.2s2-.7 4.8-.7c5.8 0 9.6 3.9 9.6 8.7 0 6-4.9 9.2-10.1 10.2l21.7 26.6h11c-4.4-2.7-9-8.4-13.4-14l-10-12c.2.2 9.5-1.6 9.5-12.1m-108-14.6v45.5c0 5-1.2 6.3-4.4 7.4h16.4c-4.3-1.6-4.9-2.4-4.9-7.5v-28.8l39.3 37.4v-44c0-5.6.2-6.2 3.8-7.9h-15.2c3.9 1.3 4.5 2.2 4.5 7.8v27.7zm-48.6 0c15.2 0 25.7 10.7 25.7 26.3 0 15.4-11.1 27.1-25.7 27.1-14.6.1-25.8-11.7-25.8-27 0-15.6 10.5-26.4 25.8-26.4m-.3 47.7c10.2 0 17.4-8.7 17.4-21.2 0-12.7-6.7-21-16.8-21-10 0-17.4 8.8-17.4 20.7 0 12.1 7.3 21.5 16.8 21.5m-63.3-42.6c11.2 0 14.8 6.8 14.8 6.8v-12.3c-.9 1.3-1.6 1.7-2.9 1.7-2 0-6.5-1.2-13.6-1.2-16 0-27.5 11.1-27.5 26.6 0 14.8 10.5 26.8 27.7 26.8 5.6 0 9.2-.7 17.2-3l.9-10.7s-5.4 7.9-16.7 7.9c-12.2-.1-19.7-8.6-19.7-21.5 0-12.7 7.8-21.1 19.8-21.1m271.7 9.6-12.7 32.4c-.4 1.1-.7 1.9-.7 2.7 0 1.4 1 2.3 3.1 3.1h-16.3c3.1-1.4 4-2.2 5.2-4.8l21.3-48.1 21.3 48.1c1.2 2.7 2.1 3.5 5.3 4.8h-16.3c2.2-.8 3.1-1.8 3.1-3.1 0-.7-.2-1.6-.7-2.7z" fill="#c4b991" fill-rule="nonzero" transform="matrix(.92284 0 0 .92284 100 153.627)"/></svg>

<?xml version="1.0" encoding="UTF-8" standalone="no"?>
<!DOCTYPE svg PUBLIC "-//W3C//DTD SVG 1.1//EN" "http://www.w3.org/Graphics/SVG/1.1/DTD/svg11.dtd">
<svg width="100%" height="100%" viewBox="0 0 560 400" version="1.1" xmlns="http://www.w3.org/2000/svg" xmlns:xlink="http://www.w3.org/1999/xlink" xml:space="preserve" xmlns:serif="http://www.serif.com/" style="fill-rule:evenodd;clip-rule:evenodd;stroke-linejoin:round;stroke-miterlimit:1.41421;">
    <g transform="matrix(0.92284,0,0,0.92284,100,153.627)">
        <path d="M362.1,83.3L359.8,86.4L357.4,83.3L356.6,83.3L356.6,89.6L357.5,89.6L357.5,84.8L357.6,84.9L359.6,87.6L360,87.6L362,84.9L362.1,84.7L362.1,89.7L363,89.7L363,83.4M351,84.1L352.7,84.1L352.7,89.6L353.6,89.6L353.6,84.1L355.4,84.1L355.4,83.3L351,83.3L351,84.1ZM309.3,99.7L309.6,99.9L309.2,100.1L307,100.1C305.7,100.1 305.2,100 304.6,99.7C303.7,99.2 302.8,98.1 301.6,96.4C300.7,95.2 299.7,93.6 299.4,93.3L299,93.1L297.1,93.1L296.9,93.3L296.9,93.6C296.9,95.7 296.9,97.5 297,98.4L297.9,99.6L299,99.7L299.2,99.9L298.8,100.1L295.5,100.1L292.8,100.1L292.3,99.9L292.7,99.7L293.5,99.6L294.2,98.4C294.3,97.5 294.3,95.7 294.3,93.7L294.3,89.7L294.3,85L293.3,83.7L292.4,83.6L292.1,83.4L292.6,83.2L298.8,83.2C300.2,83.2 301.7,83.3 302.9,84.1C303.5,84.5 304.4,85.7 304.4,87.2C304.4,88.8 303.7,90.3 301.4,92.2C303.4,94.7 305,96.7 306.2,98.1C307.5,99.4 308.4,99.5 308.7,99.6L309.3,99.7M300.3,91.8C301,91.3 301.6,90.2 301.6,88.4C301.6,85.2 299.5,84.3 298.2,84.3L297,84.4L296.8,84.7L296.8,91.5L297,91.9L298.7,92.1L300.3,91.8M334.7,99.8C335.7,100.2 336.6,100.4 338,100.4C339.2,100.4 340.4,100.2 341.6,99.5C343.2,98.4 343.7,96.9 343.7,95.6C343.7,93.5 342.8,91.9 340,89.9L339.4,89.4C337.6,88 337,87.2 337,86.2C337,84.9 338,83.9 339.7,83.9C341.2,83.9 341.8,84.6 342.1,85L342.7,86.5L342.9,86.9L343.1,86.2C343.1,84.5 343.2,83.8 343.2,83.5L342.9,83.2C342.3,83.1 341.3,82.8 339.9,82.8C336.8,82.8 334.7,84.6 334.7,87C334.7,88.8 335.5,90.4 338,92.3L339.1,93.1C340.9,94.5 341.3,95.6 341.3,96.6C341.3,97.8 340.3,99.1 338.3,99.1C336.9,99.1 335.6,98.5 335.1,96.8L334.9,95.6L334.7,95.3L334.4,95.9C334.4,96.2 334.3,97.6 334.3,98.8L334.7,99.8M318.1,93.6C318.1,95.7 318.1,97.4 318,98.3L317.3,99.5L316.5,99.6L316.1,99.8L316.5,100L322.8,100L323.2,99.8L322.9,99.6L321.7,99.5L320.8,98.3C320.7,97.4 320.7,95.6 320.7,93.5L320.7,84.4L323.6,84.4C325.5,84.5 326.2,85.1 326.2,85.6L326.2,86L326.5,86.4L326.7,86L326.8,83.4L326.6,82.9L326,83L324.5,83.1L315.6,83.1L313.3,83L312.4,82.7L312.1,83.1L311.6,85.7L311.8,86L312,85.7L312.4,84.9C312.8,84.4 313.3,84.3 314.6,84.2L317.9,84.2L317.9,93.6L318.1,93.6ZM276.1,82.9C281.7,82.9 285.1,86.2 285.1,91.2C285.1,96.3 281.5,100.4 275.9,100.4C269.5,100.4 266.9,95.6 266.9,91.6C266.9,87.9 269.4,82.9 276.1,82.9M276.9,99.3C278.5,99.3 282.1,98.5 282.1,92.1C282.1,87.1 279.2,84 275.5,84C273,84 270,85.4 270,91C270,95.6 272.6,99.3 276.9,99.3M250.2,99.8C251.1,100.2 252.2,100.4 253.4,100.4C254.6,100.4 255.9,100.2 257,99.5C258.6,98.4 259,96.9 259,95.6C259,93.5 258.1,91.9 255.4,89.9L254.8,89.4C253,88 252.4,87.2 252.4,86.2C252.4,84.9 253.4,83.9 255.1,83.9C256.6,83.9 257.2,84.6 257.5,85L258.1,86.5L258.3,86.9L258.6,86.2L258.6,83.5L258.3,83.2C257.7,83.1 256.8,82.8 255.4,82.8C252.3,82.8 250.2,84.6 250.2,87C250.2,88.8 251,90.4 253.5,92.3L254.5,93.1C256.4,94.5 256.7,95.6 256.7,96.6C256.7,97.8 255.7,99.1 253.7,99.1C252.3,99.1 250.9,98.5 250.5,96.8L250.3,95.6L250.1,95.3L249.8,95.9C249.8,96.2 249.7,97.6 249.7,98.8L250.2,99.8M232.4,93.6C232.4,95.7 232.4,97.4 232.3,98.3L231.6,99.5L230.8,99.6L230.5,99.8L230.9,100L236,100C237,100 238.2,100.1 239.9,100.1L241.1,99.5L241.4,97L241.2,96.6L241,97L240,98.7L237.9,99C235.7,99 235.3,98.7 235.3,97.1L235.3,91.9L235.4,91.6L238.7,91.7L239.9,92.5L239.9,93.3L240.1,93.5L240.3,93L240.4,91.5L240.6,89.9L240.4,89.7L240.1,90L239,90.4L235.4,90.4L235.3,90.2L235.3,84.5L235.4,84.3L238.6,84.4C239.7,84.5 239.9,84.8 240.1,85.2L240.2,86L240.4,86.4L240.6,86.1L240.8,84.6L241,83.2L240.8,83L240.4,83.1L239.5,83.2L234,83.2L232.5,83.2L230.7,83.2L230.2,83.4L230.6,83.6L231.5,83.7L232.5,85L232.5,93.6L232.4,93.6ZM225.7,99.7L226,99.9L225.6,100.1L223.5,100.1C222.2,100.1 221.7,100 221.1,99.7C220.2,99.2 219.4,98.1 218.1,96.4C217.2,95.2 216.2,93.6 215.9,93.3L215.5,93.1L213.6,93.1L213.5,93.3L213.5,93.6C213.5,95.7 213.5,97.5 213.6,98.4L214.5,99.6L215.6,99.7L215.9,99.9L215.5,100.1L212.2,100.1L209.5,100.1L209,99.9L209.4,99.7L210.2,99.6L210.8,98.4C210.9,97.5 210.9,95.7 210.9,93.7L210.9,89.7L210.9,85L209.9,83.7L209,83.6L208.6,83.4L209.1,83.2L215.4,83.2C216.8,83.2 218.3,83.3 219.5,84.1C220.1,84.5 221,85.7 221,87.2C221,88.8 220.3,90.3 218.1,92.2C220.1,94.7 221.6,96.7 222.9,98.1C224.2,99.4 225.1,99.5 225.4,99.6L225.7,99.7M216.7,91.8C217.4,91.3 218,90.2 218,88.4C218,85.2 215.9,84.3 214.6,84.3L213.4,84.4L213.2,84.7L213.2,91.5L213.4,91.9L215.1,92.1L216.7,91.8M192,99.7L192.3,99.9L191.6,100.1L190,100.1C187.4,100.1 186.6,99.9 184.7,98.4C184,99.1 182.5,100.5 179.4,100.5C174.6,100.5 173.2,97.5 173.2,95.5C173.2,92.9 175.5,90.9 176.9,90.2C175.9,88.9 175.8,88 175.7,87C175.7,85.2 177.3,82.9 181.1,82.9C182.2,82.9 183.2,83.1 183.9,83.4L184.3,84L184,86.9L183.7,87.3L183.5,86.9L182.9,85C182.5,84.5 181.7,84 180.4,84C179.4,84 178,84.6 178,86.6C178,88.7 179.9,90.5 181.7,92.5L185.6,96.2C186,95.6 186.7,94.1 186.7,92.7L186.3,91.7L185.2,91.3L184.9,91.2L185.3,91C185.8,91 186.7,91 188,91.2L188.8,91.6C188.8,93.3 187.9,95.4 186.6,96.9C188.1,98.1 189.1,98.7 189.7,99.1L192,99.7M180.2,99C181.9,99 183.4,98.1 183.9,97.7C182.6,96.6 180.4,94.5 179.8,93.9L177.4,91.1C176.7,91.7 175.9,92.7 175.9,94.5C176,97.2 177.9,99 180.2,99M144.9,99.8C145.9,100.2 146.9,100.4 148.1,100.4C149.3,100.4 150.5,100.2 151.7,99.5C153.3,98.4 153.8,96.9 153.8,95.6C153.8,93.5 152.8,91.9 150.1,89.9L149.5,89.4C147.6,88 147.1,87.2 147.1,86.2C147.1,84.9 148.1,83.9 149.8,83.9C151.3,83.9 151.9,84.6 152.2,85L152.8,86.5L153,86.9L153.2,86.2C153.2,84.5 153.3,83.8 153.3,83.5L153,83.2C152.4,83.1 151.5,82.8 150.1,82.8C147,82.8 144.9,84.6 144.9,87C144.9,88.8 145.7,90.4 148.2,92.3L149.2,93.1C151.1,94.5 151.4,95.6 151.4,96.6C151.4,97.8 150.4,99.1 148.4,99.1C147,99.1 145.7,98.5 145.2,96.8L145,95.6L144.8,95.3L144.5,95.9C144.5,96.2 144.4,97.6 144.4,98.8L144.9,99.8M130.5,89.7C130.5,86.3 130.5,85.7 130.6,85L131.4,83.7L132.3,83.6L132.7,83.4L132.2,83.2L129.1,83.2L126.1,83.2L125.6,83.4L126,83.6L126.7,83.7L127.7,85C127.8,85.7 127.8,86.3 127.8,89.7L127.8,93.7C127.8,95.8 127.8,97.5 127.6,98.4L127,99.6L126.2,99.7L125.8,99.9L126.2,100.1L131.7,100.1C132.7,100.1 133.8,100.2 135.5,100.2C136.6,100.2 136.7,100.1 136.9,99.6L137.2,97L137,96.6L136.8,96.9L136.2,98.3C135.6,98.9 134.8,98.9 133.6,98.9C131.9,98.9 131.3,98.8 130.9,98.4C130.4,98 130.4,96.4 130.4,93.6L130.4,89.7L130.5,89.7ZM108.6,93.6C108.6,95.7 108.6,97.4 108.5,98.3L107.8,99.5L107,99.6L106.6,99.8L107.1,100L112.3,100C113.2,100 114.5,100.1 116.1,100.1L117.3,99.5L117.6,97L117.4,96.6L117.2,96.9L116.2,98.6L114.1,98.9C111.8,98.9 111.4,98.6 111.4,97L111.4,91.8L111.6,91.5L114.7,91.6L116,92.4L116.1,93.2L116.3,93.4L116.5,92.9L116.6,91.4L116.8,89.8L116.7,89.6L116.4,89.9L115.3,90.3L111.7,90.3L111.5,90.1L111.5,84.4L111.7,84.2L114.8,84.3C115.9,84.4 116.2,84.7 116.3,85.1L116.4,85.9L116.6,86.3L116.8,86L116.9,84.5L117.1,83.1L117,83L116.7,83.1L115.8,83.2L110.2,83.2L108.8,83.2L107,83.2L106.5,83.4L106.9,83.6L107.8,83.7L108.8,85L108.8,93.6L108.6,93.6ZM90.8,93.6C90.8,95.7 90.8,97.4 90.7,98.3L90.1,99.5L89.3,99.6L88.9,99.8L89.4,100L95.7,100L96.1,99.8L95.8,99.6L94.6,99.5L93.8,98.3C93.7,97.4 93.7,95.6 93.7,93.5L93.7,84.4L96.5,84.4C98.5,84.5 99.1,85.1 99.1,85.6L99.1,85.9L99.3,86.3L99.5,85.9L99.5,83.3L99.5,83L98.9,83.1L97.4,83.2L88.5,83.2L86.3,83.1L85.3,82.8L85,83.3L84.6,85.9L84.8,86.2L85,86L85.4,85.2C85.8,84.7 86.3,84.6 87.5,84.5L90.8,84.5L90.8,93.6ZM70.9,82.9C76.5,82.9 80,86.2 80,91.2C80,96.3 76.4,100.4 70.7,100.4C64.3,100.4 61.7,95.6 61.7,91.6C61.7,87.9 64.2,82.9 70.9,82.9M71.6,99.3C73.2,99.3 76.8,98.5 76.8,92.1C76.8,87.1 73.9,84 70.2,84C67.6,84 64.7,85.4 64.7,91C64.7,95.6 67.3,99.3 71.6,99.3M42,90.3L41.8,90.1L41.8,89.6L41.8,84.9L42.6,83.6L43.3,83.5L43.7,83.3L43.3,83.1L40.4,83.1L37.2,83.1L36.8,83.3L37.2,83.5L38.1,83.6L39.1,84.9L39.1,93.6C39.1,95.7 39.1,97.4 39,98.3L38.4,99.5L37.6,99.6L37.2,99.8L37.6,100L43.9,100L44.4,99.8L44,99.7L42.8,99.6L42,98.4C41.9,97.5 41.9,95.7 41.9,93.6L41.9,91.6L42.1,91.5L50.6,91.5L50.7,91.6L50.7,93.6C50.7,95.7 50.7,97.4 50.6,98.3L50,99.5L49.2,99.6L48.8,99.8L49.3,100L55.6,100L56.1,99.8L55.7,99.6L54.6,99.5L53.7,98.3C53.6,97.4 53.6,95.6 53.6,93.5L53.6,89.5L53.6,84.8L54.4,83.5L55.1,83.4L55.5,83.2L55.1,83L52.2,83L49,83L48.5,83.2L48.9,83.4L49.8,83.5L50.8,84.8C50.9,85.5 50.9,86.1 50.9,89.5L50.9,90L50.8,90.2L42,90.2L42,90.3ZM390.1,27.9C390.1,44.2 377.7,53.2 357.8,53.2L341.4,53.2C344.8,52.1 346,50.8 346,45.9L346,10.1C346,5.2 345.8,4.1 341.4,2.5L360.6,2.5C377.2,2.6 390.1,10.8 390.1,27.9M361.2,47.4C372.8,47.4 381,40.1 381,28.2C381,16 373.3,7.6 360.5,7.6L353.2,7.6L353.2,42.5C353.2,46.1 354.3,47.4 357.4,47.4L361.2,47.4ZM249.4,15C249.4,5.1 240.1,2.6 233.3,2.6L215.2,2.6C219.7,3.9 219,9.9 219,13.4L219,42.5C219,45.9 219.4,51.9 214.4,53.3L231.1,53.3C226.3,51.9 226.3,46.1 226.3,42.5L226.3,8.3C226.3,8.3 228.3,7.6 231.1,7.6C236.9,7.6 240.7,11.5 240.7,16.3C240.7,22.3 235.8,25.5 230.6,26.5L252.3,53.1L263.3,53.1C258.9,50.4 254.3,44.7 249.9,39.1L239.9,27.1C240.1,27.3 249.4,25.5 249.4,15M141.4,0.4L141.4,45.9C141.4,50.9 140.2,52.2 137,53.3L153.4,53.3C149.1,51.7 148.5,50.9 148.5,45.8L148.5,17L187.8,54.4L187.8,10.4C187.8,4.8 188,4.2 191.6,2.5L176.4,2.5C180.3,3.8 180.9,4.7 180.9,10.3L180.9,38L141.4,0.4ZM92.8,0.4C108,0.4 118.5,11.1 118.5,26.7C118.5,42.1 107.4,53.8 92.8,53.8C78.2,53.9 67,42.1 67,26.8C67,11.2 77.5,0.4 92.8,0.4M92.5,48.1C102.7,48.1 109.9,39.4 109.9,26.9C109.9,14.2 103.2,5.9 93.1,5.9C83.1,5.9 75.7,14.7 75.7,26.6C75.7,38.7 83,48.1 92.5,48.1M29.2,5.5C40.4,5.5 44,12.3 44,12.3L44,0C43.1,1.3 42.4,1.7 41.1,1.7C39.1,1.7 34.6,0.5 27.5,0.5C11.5,0.5 0,11.6 0,27.1C0,41.9 10.5,53.9 27.7,53.9C33.3,53.9 36.9,53.2 44.9,50.9L45.8,40.2C45.8,40.2 40.4,48.1 29.1,48.1C16.9,48 9.4,39.5 9.4,26.6C9.4,13.9 17.2,5.5 29.2,5.5M300.9,15.1L288.2,47.5C287.8,48.6 287.5,49.4 287.5,50.2C287.5,51.6 288.5,52.5 290.6,53.3L274.3,53.3C277.4,51.9 278.3,51.1 279.5,48.5L300.8,0.4L322.1,48.5C323.3,51.2 324.2,52 327.4,53.3L311.1,53.3C313.3,52.5 314.2,51.5 314.2,50.2C314.2,49.5 314,48.6 313.5,47.5L300.9,15.1Z" style="fill:rgb(196,185,145);fill-rule:nonzero;"/>
    </g>
</svg>
